X: 1
T: The Marquis of Huntly's Highland Fling
C: George Jenkins (attr)
R: strathspey
B: Athole Coll
B: George Jenkins "New Scotch Music Consisting of Slow Airs, Strathspeys, Quick Reels, Country Dances, and a Medley on a New Plan" 1793
N: Clearly related to the Gaelic song "'S ann an Ile" ("It is an island")
Z: 2004 John Chambers <jc:trillian.mit.edu>
M: C
L: 1/16
K: D
A2 \
| "D"dd3 f3d "G"g3e "D"f3d | "Em"BB3 "E7"e3d  "A"cA3 "A7"A3c \
| "D"dd3 f3d "G"g3e "D"f3d | "Em"B3e "A7"dcBA "D"d4      d2 :|
|: B2 \
| "D"A3D F3D    A3B    d3e |  "D"fd3     g3f  "G"e3d     Bd3 \
| "D"A3D F3D "G"A2B    db3 | "A7"af3     e3f  "D"d4      d2 :|
